X: 0
T: Hush, My Babe
Z: J.J. Rousseau
Z: Public Domain
L: 1/4
M: 2/4
Q: 1/4=115
V: P1_1 name="Right Hand"
V: P1_2
%%MIDI program 1 0
V: P2_1 name="Hush, My Babe"
V: P2_2
%%MIDI program 2 91
K: F
% Extracting voice 1 from part P1
[V: P1_1]  [(F(A] A3/4G/4 | | | A3/4G/4 | | | G3/4F/4 G3/4A/4 | | | | | A3/4G/4 | | | G3/4F/4 G3/4A/4 | | | | | | | | | | | | | A3/4G/4 | | | G3/4F/4 G3/4A/4 ||]
% Extracting voice 2 from part P1
[V: P1_2]  x1  F | | | F F | | | C C | | | | | F F | | | C C | | | | | | | | | | | | | F F | | | C C ||]
% Extracting voice 1 from part P2
[V: P2_1]  [(F,(C] C3/4B,/4 | | | C3/4B,/4 [F,A,] | | | B,3/4A,/4 B,3/4C/4 | | | | | | | | | | | | | | | | | | [(F,(C] C3/4B,/4 | | | C3/4B,/4 [F,A,] | | | B,3/4A,/4 B,3/4C/4 ||]
% Extracting voice 2 from part P2
[V: P2_2]  x1  F, | | | F, x1  | | | C, C, | | | | | | | | | | | | | | | | | | x1  F, | | | F, x1  | | | C, C, ||]

